X:1
T:Title
%%score { ( 1 4 ) | ( 2 3 ) }
L:1/8
M:4/4
K:Ab
V:1 treble nm="Grand Piano"
V:4 treble 
V:2 bass 
V:3 bass 
V:1
 z4 z2[Q:1/4=96] C>D | [CE]2 [Ec]>_c [E=c]2 [CE]>=E | F2 d>c [Fd]2 BA | G2 G>A [GB]GFE | %4
 [EA]2 [EB]>B c2 CD | [CE]2 [Ec]>_c [E=c]2 [CE]>=E | F2 d>c [Fd]2 BA | GABc [Ge]dcB | %8
 A2 G>G [CA]4 | [EB]>[EB] [Ge]2 [Ge]4 | c>c e2 e4 | dd [Bd]2 cc A2 | z4 B4[K:bass] | %13
 [Ec]>[DB] [CA]2 [Ec]4 | [Ed]>[Ec] [EB]2 [Ed]4 | [Ee]2 [Ge]>[Ge] [Ae] [Ae]2 [Fd] | %16
[M:3/4] c2 B>B [CA]2 |] %17
V:2
 z4 z2 A,>B, | z2 [E,A,]2 z2 [E,A,]2 | [D,D]2 F>=E D,2 [F,B,F]2 | %3
 [E,E]2[K:treble] E>F[K:bass] z E .[G,B,D]2 | [C,A,]2 z z/ E/ [A,E]2 A,B, | z2 [E,A,]2 z2 [E,A,]2 | %6
 [D,D]2 F>=E D,2 [F,B,F]2 | E[K:treble]FGA z F[K:bass][G,E][D,D] | C2 D>D [A,,E,]4 | %9
 [E,G,]>[E,G,] [E,B,]2 [E,B,]4 | [A,E]>[A,E] [A,CA]2 [A,CA]4 | %11
 [B,EG][B,EG] [G,E]2 [A,EA][A,EA][K:bass] [A,CE]2 | [G,B,D]2 [F,A,=D]>[F,A,D] [E,G,E]4 | %13
 [A,,A,]>[A,,A,] [A,,E,]2 [A,,A,]4 | [B,,G,]>[B,,G,] [B,,G,]2 [B,,G,]4 | %15
 [C,A,]2 [E,B,]>[E,D] [A,C] [A,C]2 [D,A,] |[M:3/4] [E,A,E]2 [E,G,D]>[E,G,D] [A,,A,]2 |] %17
V:3
 x8 | A,,2 z z/ =D/ A,,2 z z/ C/ | z2 [F,B,]2 z4 | z2[K:treble] [G,B,]2[K:bass] E,2 z2 | %4
 z2 [G,B,]2 z4 | A,,2 z z/ =D/ A,,2 z z/ C/ | z2 [F,B,]2 z4 | %7
 E,2[K:treble] [G,B,]2 E,2[K:bass] z2 | E,4 z4 | x8 | x8 | x6[K:bass] x2 | x8 | x8 | x8 | x8 | %16
[M:3/4] x6 |] %17
V:4
 x8 | x8 | x8 | x8 | x8 | x8 | x8 | x8 | x8 | x8 | x8 | x8 | B2 B>B z[K:bass] D,C,B,, | x8 | x8 | %15
 x8 |[M:3/4] x6 |] %17

